X: 17
T: Music Mad
M:2/4
L:1/8
B:Goulding & Co. - Twenty Four Country Dances for the Year 1808 (London)
N:"With proper Tune & Directions to each Dance (as they may be
N:performed at Court, Bath, and all Public Assemblys."
Z:Transcribed and edited by Flynn Titford-Mock
Z:abcs's:AK/Fiddler's Companion
K:F
fgfc|AF c2|dbgf|e/f/g/e/ c2|fgfc|AF c2|dbge|f2F2:|
|:g>agf|ec g2|afdc|=B/c/d/B/ G2|g>agf|ec g2|afd=B|c2C2:|
|:dB {a}b2|cA {g}a2|bagf|e/f/g/e/ c2|dB {a}b2|cA {g}a2|bg e/f/g/e/|f2F2:||

%%sep 1 1 500
